!!!OTL: RAUS ZUM GREIFSWALDER THOR HINAUS
!!!ARE: Europa, Mitteleuropa, Deutschland, Greifswald
!!!SCT: Z0221
!!!YEM: Copyright 1995, estate of Helmut Schaffrath.
**kern
*ICvox
*Ivox
*M4/4
*k[b-e-a-d-]
*A-:
=1
{4cc
8b-
8b-
8a-
8a-
8e-
8e-
=2
8a-
16a-
16a-
8b-
16ee-
16dd-
2cc}
=3
{4cc
8b-
8b-
8a-
8a-
8e-
8e-
=4
8a-
16a-
16a-
8b-
16ee-
16dd-
4.cc}
{16cc
16dd-
=5
8ee-
8ee-
8ee-
16ff
16ee-
8dd-
8dd-
8dd-
16ee-
16dd-
=6
8cc
8cc
16cc
16ee-
8cc
16b-
16b-
8b-
8b-}
{16ee-
16dd-
=7
4cc
4b-
2a-}
==
!!!AGN: Handwerker - Lied, Handwerks - Burschen, Wanderschaft
!!!ONB: ESAC (Essen Associative Code) Database: ZUCCAL
!!!AMT: simple quadruple
!!!AIN: vox
!!!EED: Helmut Schaffrath
!!!EEV: 1.0
*-
